X: 348
T: Bessarabian Sirba #1
R: sirba
Q: 1/4=138
B: German Goldenshteyn "Shpilt klezmorimlach klingen zoln di gesalach" New York 2003 v.3 #48
Z: 2013 John Chambers <jc:trillian.mit.edu>
M: 2/4
L: 1/8
K: Em
|:\
E3 (3(GF)E | EA (3(AG)F | G3 (A/G/) | (3(FG)A (3(GF)E |\
E2 (3(GF)E | (B/d/)c (3(cB)A | A4- | AEFG |
A2 (3(cB)A | Ae (3(ed)c | (~BA) (~AG) | GFGA |\
(~BA) (~AG) | (~GF) (~FE) |[1 E4- | EB,CB, :|\
[2 E4- | EEGB ||
|: Be (3(ed)c | (~B>A) Bc | B3 (A/G/) | (3(FG)A (3(GF)E |\
Ee (3(ed)c | (~B>A) Bc | B4- | BB c^c |
d4- | d(B/d/) (3(cB)A | A3 B | c3 B |\
(~BA) (~AG) | (~GF) (~FE) | E4- |[1 EE GB :|2 E2 z2 |]
